scenes/luxball/domingo_145.cube
#Created by: Adobe Photoshop Export Color Lookup Plugin
#Copyright: (C) Copyright 2017 RocketStock
TITLE "Untitled"
#LUT size
LUT_3D_SIZE 32
#data domain
DOMAIN_MIN 0.0 0.0 0.0
DOMAIN_MAX 1.0 1.0 1.0
#LUT data points
0.039215 0.027924 0.000000
0.049316 0.028290 0.000000
0.059601 0.028687 0.000000
0.070343 0.029114 0.000000
0.081635 0.029541 0.000000
0.093781 0.029999 0.000000
0.107025 0.030548 0.000000
0.121704 0.031067 0.000000
0.138214 0.031616 0.000000
0.156952 0.032196 0.000000
0.178223 0.032806 0.000000
0.202362 0.033417 0.000000
0.229584 0.034119 0.000000
0.259796 0.034760 0.000000
0.292877 0.035461 0.000000
0.328461 0.036224 0.000000
0.366211 0.036957 0.000000
0.405853 0.037720 0.000000
0.446777 0.038513 0.000000
0.488770 0.039337 0.000000
0.531342 0.040161 0.000000
0.574280 0.041016 0.000000
0.617310 0.041870 0.000000
0.660431 0.042816 0.000000
0.703583 0.043671 0.000000
0.746674 0.044647 0.000000
0.789612 0.045593 0.000000
0.832275 0.046539 0.000000
0.874573 0.047333 0.000000
0.916443 0.047699 0.000000
0.958252 0.048126 0.000000
1.000000 0.048523 0.000000
0.040466 0.038330 0.000000
0.050659 0.038727 0.000000
0.061066 0.039154 0.000000
0.071930 0.039612 0.000000
0.083405 0.040131 0.000000
0.095703 0.040619 0.000000
0.109192 0.041168 0.000000
0.124115 0.041718 0.000000
0.140961 0.042328 0.000000
0.160065 0.042969 0.000000
0.181732 0.043610 0.000000
0.206268 0.044281 0.000000
0.233887 0.044983 0.000000
0.264374 0.045685 0.000000
0.297668 0.046448 0.000000
0.333344 0.047180 0.000000
0.371216 0.047974 0.000000
0.410797 0.048767 0.000000
0.451599 0.049591 0.000000
0.493378 0.050446 0.000000
0.535645 0.051331 0.000000
0.578186 0.052216 0.000000
0.620941 0.053131 0.000000
0.663696 0.054077 0.000000
0.706421 0.055023 0.000000
0.749084 0.056000 0.000000
0.791412 0.056824 0.000000
0.833252 0.057190 0.000000
0.875031 0.057556 0.000000
0.916718 0.057983 0.000000
0.958435 0.058380 0.000000
1.000000 0.058807 0.000000
0.041962 0.048950 0.000000
0.052246 0.049408 0.000000
0.062744 0.049896 0.000000
0.073700 0.050415 0.000000
0.085327 0.050934 0.000000
0.097870 0.051514 0.000000
0.111603 0.052124 0.000000
0.126801 0.052734 0.000000
0.143951 0.053375 0.000000
0.163452 0.054077 0.000000
0.185486 0.054718 0.000000
0.210449 0.055420 0.000000
0.238434 0.056213 0.000000
0.269257 0.056946 0.000000
0.302704 0.057770 0.000000
0.338501 0.058533 0.000000
0.376343 0.059387 0.000000
0.415863 0.060242 0.000000
0.456482 0.061096 0.000000
0.498016 0.062042 0.000000
0.539978 0.062958 0.000000
0.582123 0.063873 0.000000
0.624481 0.064850 0.000000
0.666931 0.065857 0.000000
0.709015 0.066681 0.000000
0.750549 0.067078 0.000000
0.792175 0.067474 0.000000
0.833801 0.067871 0.000000
0.875488 0.068298 0.000000
0.917053 0.068695 0.000000
0.958588 0.069153 0.000000
1.000000 0.069611 0.000000
0.043671 0.060059 0.000000
0.054047 0.060577 0.000000
0.064636 0.061096 0.000000
0.075745 0.061676 0.000000
0.087494 0.062286 0.000000
0.100220 0.062897 0.000000
0.114197 0.063568 0.000000
0.129700 0.064209 0.000000
0.147217 0.064911 0.000000
0.167084 0.065674 0.000000
0.189484 0.066406 0.000000
0.214874 0.067169 0.000000
0.243164 0.067993 0.000000
0.274200 0.068787 0.000000
0.307892 0.069672 0.000000
0.343719 0.070496 0.000000
0.381592 0.071442 0.000000
0.420959 0.072388 0.000000
0.461365 0.073303 0.000000
0.502655 0.074249 0.000000
0.544250 0.075226 0.000000
0.586060 0.076263 0.000000
0.627777 0.077148 0.000000
0.668823 0.077576 0.000000
0.710083 0.077942 0.000000
0.751434 0.078400 0.000000
0.792877 0.078796 0.000000
0.834473 0.079254 0.000000
0.875946 0.079712 0.000000
0.917450 0.080170 0.000000
0.958771 0.080627 0.000000
1.000000 0.081146 0.000000
0.045593 0.071808 0.000000
0.056000 0.072388 0.000000
0.066711 0.072968 0.000000
0.077942 0.073639 0.000000
0.089844 0.074310 0.000000
0.102814 0.074982 0.000000
0.117004 0.075745 0.000000
0.132812 0.076447 0.000000
0.150696 0.077271 0.000000
0.170929 0.078033 0.000000
0.193756 0.078857 0.000000
0.219482 0.079742 0.000000
0.248047 0.080566 0.000000
0.279358 0.081512 0.000000
0.313202 0.082428 0.000000
0.349060 0.083374 0.000000
0.386841 0.084351 0.000000
0.426086 0.085358 0.000000
0.466248 0.086395 0.000000
0.507172 0.087463 0.000000
0.548248 0.088409 0.000000
0.588501 0.088776 0.000000
0.629120 0.089233 0.000000
0.670013 0.089661 0.000000
0.711151 0.090118 0.000000
0.752411 0.090576 0.000000
0.793732 0.091064 0.000000
0.835114 0.091522 0.000000
0.876465 0.092010 0.000000
0.917755 0.092529 0.000000
0.958923 0.093048 0.000000
1.000000 0.093597 0.000000
0.047699 0.084473 0.000000
0.058136 0.085144 0.000000
0.068939 0.085846 0.000000
0.080292 0.086548 0.000000
0.092377 0.087311 0.000000
0.105530 0.088104 0.000000
0.119995 0.088867 0.000000
0.136108 0.089722 0.000000
0.154358 0.090576 0.000000
0.174957 0.091492 0.000000
0.198151 0.092407 0.000000
0.224243 0.093353 0.000000
0.253082 0.094269 0.000000
0.284607 0.095306 0.000000
0.318512 0.096344 0.000000
0.354401 0.097382 0.000000
0.392120 0.098450 0.000000
0.431122 0.099579 0.000000
0.470856 0.100616 0.000000
0.510010 0.101044 0.000000
0.549774 0.101501 0.000000
0.589935 0.101929 0.000000
0.630493 0.102417 0.000000
0.671265 0.102875 0.000000
0.712219 0.103394 0.000000
0.753357 0.103912 0.000000
0.794556 0.104401 0.000000
0.835754 0.104980 0.000000
0.876984 0.105530 0.000000
0.918121 0.106049 0.000000
0.959137 0.106628 0.000000
1.000000 0.107208 0.000000
0.049927 0.098389 0.000000
0.060455 0.099152 0.000000
0.071350 0.099915 0.000000
0.082855 0.100769 0.000000
0.095093 0.101593 0.000000
0.108429 0.102478 0.000000
0.123169 0.103424 0.000000
0.139618 0.104309 0.000000
0.158203 0.105316 0.000000
0.179108 0.106293 0.000000
0.202698 0.107330 0.000000
0.229156 0.108368 0.000000
0.258240 0.109467 0.000000
0.289917 0.110626 0.000000
0.323883 0.111755 0.000000
0.359741 0.112915 0.000000
0.397095 0.114014 0.000000
0.434296 0.114502 0.000000
0.472626 0.114960 0.000000
0.511719 0.115448 0.000000
0.551331 0.115936 0.000000
0.591522 0.116486 0.000000
0.631897 0.117004 0.000000
0.672516 0.117523 0.000000
0.713409 0.118103 0.000000
0.754333 0.118683 0.000000
0.795410 0.119232 0.000000
0.836487 0.119843 0.000000
0.877533 0.120483 0.000000
0.918518 0.121094 0.000000
0.959320 0.121704 0.000000
1.000000 0.122345 0.000000
0.052338 0.113892 0.000000
0.062897 0.114746 0.000000
0.073883 0.115662 0.000000
0.085510 0.116638 0.000000
0.097931 0.117554 0.000000
0.111481 0.118591 0.000000
0.126495 0.119629 0.000000
0.143219 0.120667 0.000000
0.162170 0.121765 0.000000
0.183441 0.122894 0.000000
0.207397 0.124023 0.000000
0.234100 0.125275 0.000000
0.263428 0.126495 0.000000
0.295227 0.127747 0.000000
0.329041 0.128998 0.000000
0.363220 0.129456 0.000000
0.399048 0.129974 0.000000
0.436279 0.130524 0.000000
0.474457 0.131042 0.000000
0.513519 0.131592 0.000000
0.553070 0.132172 0.000000
0.593018 0.132751 0.000000
0.633331 0.133331 0.000000
0.673828 0.133972 0.000000
0.714569 0.134583 0.000000
0.755402 0.135223 0.000000
0.796265 0.135895 0.000000
0.837189 0.136536 0.000000
0.878021 0.137238 0.000000
0.918823 0.137939 0.000000
0.959473 0.138641 0.000000
1.000000 0.139313 0.000000
0.054840 0.131378 0.000000
0.065460 0.132385 0.000000
0.076538 0.133423 0.000000
0.088287 0.134552 0.000000
0.100861 0.135620 0.000000
0.114655 0.136780 0.000000
0.129883 0.137970 0.000000
0.146973 0.139160 0.000000
0.166229 0.140442 0.000000
0.187866 0.141724 0.000000
0.212128 0.143066 0.000000
0.239075 0.144409 0.000000
0.268585 0.145782 0.000000
0.298737 0.146332 0.000000
0.331024 0.146820 0.000000
0.365204 0.147400 0.000000
0.401062 0.147980 0.000000
0.438202 0.148590 0.000000
0.476410 0.149170 0.000000
0.515350 0.149841 0.000000
0.554779 0.150452 0.000000
0.594666 0.151093 0.000000
0.634796 0.151794 0.000000
0.675171 0.152466 0.000000
0.715759 0.153168 0.000000
0.756470 0.153900 0.000000
0.797180 0.154602 0.000000
0.837860 0.155334 0.000000
0.878571 0.156128 0.000000
0.919189 0.156891 0.000000
0.959656 0.157715 0.000000
1.000000 0.158478 0.000000
0.057465 0.151337 0.000000
0.068115 0.152496 0.000000
0.079285 0.153687 0.000000
0.091156 0.154938 0.000000
0.103912 0.156219 0.000000
0.117920 0.157532 0.000000
0.133392 0.158844 0.000000
0.150818 0.160248 0.000000
0.170380 0.161682 0.000000
0.192291 0.163147 0.000000
0.216888 0.164612 0.000000
0.242462 0.165192 0.000000
0.270477 0.165771 0.000000
0.300781 0.166351 0.000000
0.333130 0.166992 0.000000
0.367310 0.167633 0.000000
0.403137 0.168335 0.000000
0.440216 0.168976 0.000000
0.478363 0.169647 0.000000
0.517212 0.170349 0.000000
0.556580 0.171112 0.000000
0.596313 0.171844 0.000000
0.636353 0.172577 0.000000
0.676575 0.173370 0.000000
0.717041 0.174133 0.000000
0.757507 0.174957 0.000000
0.798035 0.175720 0.000000
0.838654 0.176575 0.000000
0.879150 0.177399 0.000000
0.919525 0.178253 0.000000
0.959869 0.179108 0.000000
1.000000 0.179962 0.000000
0.060150 0.174072 0.000000
0.070862 0.175385 0.000000
0.082123 0.176788 0.000000
0.094086 0.178131 0.000000
0.107025 0.179596 0.000000
0.121246 0.181122 0.000000
0.136993 0.182587 0.000000
0.154724 0.184174 0.000000
0.174591 0.185791 0.000000
0.195374 0.186401 0.000000
0.218658 0.187042 0.000000
0.244415 0.187683 0.000000
0.272491 0.188324 0.000000
0.302887 0.189056 0.000000
0.335236 0.189728 0.000000
0.369446 0.190491 0.000000
0.405273 0.191223 0.000000
0.442322 0.191956 0.000000
0.480408 0.192749 0.000000
0.519165 0.193512 0.000000
0.558350 0.194336 0.000000
0.597992 0.195129 0.000000
0.637878 0.195953 0.000000
0.677979 0.196838 0.000000
0.718292 0.197662 0.000000
0.758575 0.198608 0.000000
0.799011 0.199432 0.000000
0.839386 0.200378 0.000000
0.879730 0.201263 0.000000
0.919952 0.202179 0.000000
0.960022 0.203156 0.000000
1.000000 0.204102 0.000000
0.062897 0.199890 0.000000
0.073639 0.201355 0.000000
0.085022 0.202911 0.000000
0.097076 0.204498 0.000000
0.110199 0.206146 0.000000
0.124634 0.207794 0.000000
0.140625 0.209473 0.000000
0.157440 0.210205 0.000000
0.176178 0.210907 0.000000
0.197113 0.211548 0.000000
0.220551 0.212250 0.000000
0.246399 0.213013 0.000000
0.274597 0.213715 0.000000
0.304993 0.214508 0.000000
0.337463 0.215240 0.000000
0.371674 0.216095 0.000000
0.407471 0.216919 0.000000
0.444489 0.217712 0.000000
0.482452 0.218597 0.000000
0.521179 0.219452 0.000000
0.560242 0.220337 0.000000
0.599731 0.221222 0.000000
0.639496 0.222168 0.000000
0.679382 0.223053 0.000000
0.719513 0.224030 0.000000
0.759644 0.224945 0.000000
0.799927 0.225952 0.000000
0.840149 0.226929 0.000000
0.880249 0.227905 0.000000
0.920319 0.228912 0.000000
0.960236 0.229919 0.000000
1.000000 0.230927 0.000000
0.065613 0.228912 0.000000
0.076477 0.230591 0.000000
0.087891 0.232330 0.000000
0.100098 0.234039 0.000000
0.113403 0.235840 0.000000
0.127045 0.236633 0.000000
0.142059 0.237366 0.000000
0.158966 0.238037 0.000000
0.177826 0.238800 0.000000
0.198944 0.239563 0.000000
0.222473 0.240326 0.000000
0.248444 0.241119 0.000000
0.276764 0.241943 0.000000
0.307251 0.242798 0.000000
0.339691 0.243652 0.000000
0.373993 0.244476 0.000000
0.409790 0.245392 0.000000
0.446686 0.246307 0.000000
0.484619 0.247223 0.000000
0.523132 0.248169 0.000000
0.562134 0.249084 0.000000
0.601471 0.250092 0.000000
0.641083 0.251099 0.000000
0.680878 0.252045 0.000000
0.720825 0.253052 0.000000
0.760834 0.254059 0.000000
0.800903 0.255127 0.000000
0.840881 0.256134 0.000000
0.880829 0.257141 0.000000
0.920654 0.258209 0.000000
0.960449 0.259308 0.000000
1.000000 0.260376 0.000000
0.068390 0.261169 0.000000
0.079315 0.262939 0.000000
0.090820 0.264832 0.000000
0.102295 0.265625 0.000000
0.114716 0.266357 0.000000
0.128357 0.267090 0.000000
0.143524 0.267822 0.000000
0.160492 0.268616 0.000000
0.179535 0.269470 0.000000
0.200806 0.270264 0.000000
0.224487 0.271088 0.000000
0.250580 0.271942 0.000000
0.278992 0.272858 0.000000
0.309570 0.273743 0.000000
0.342072 0.274689 0.000000
0.376312 0.275574 0.000000
0.412079 0.276550 0.000000
0.448975 0.277466 0.000000
0.486786 0.278503 0.000000
0.525208 0.279480 0.000000
0.564056 0.280487 0.000000
0.603271 0.281464 0.000000
0.642670 0.282532 0.000000
0.682343 0.283569 0.000000
0.722107 0.284637 0.000000
0.761993 0.285645 0.000000
0.801849 0.286743 0.000000
0.841705 0.287781 0.000000
0.881378 0.288879 0.000000
0.921143 0.289978 0.000000
0.960632 0.291107 0.000000
1.000000 0.292175 0.000000
0.071228 0.296173 0.000000
0.081390 0.297089 0.000000
0.092041 0.297821 0.000000
0.103485 0.298584 0.000000
0.115936 0.299316 0.000000
0.129700 0.300171 0.000000
0.145020 0.300934 0.000000
0.162170 0.301788 0.000000
0.181335 0.302643 0.000000
0.202728 0.303467 0.000000
0.226562 0.304413 0.000000
0.252777 0.305298 0.000000
0.281311 0.306274 0.000000
0.311951 0.307190 0.000000
0.344482 0.308136 0.000000
0.378723 0.309113 0.000000
0.414459 0.310120 0.000000
0.451263 0.311066 0.000000
0.488983 0.312134 0.000000
0.527344 0.313110 0.000000
0.566010 0.314148 0.000000
0.605042 0.315186 0.000000
0.644318 0.316284 0.000000
0.683838 0.317383 0.000000
0.723419 0.318420 0.000000
0.763092 0.319519 0.000000
0.802765 0.320618 0.000000
0.842438 0.321747 0.000000
0.881958 0.322815 0.000000
0.921509 0.323975 0.000000
0.960876 0.325043 0.000000
1.000000 0.326172 0.000000
0.072388 0.331512 0.000000
0.082458 0.332275 0.000000
0.093170 0.333069 0.000000
0.104675 0.333832 0.000000
0.117249 0.334656 0.000000
0.131134 0.335541 0.000000
0.146576 0.336334 0.000000
0.163849 0.337250 0.000000
0.183167 0.338104 0.000000
0.204742 0.339050 0.000000
0.228729 0.339966 0.000000
0.255066 0.340851 0.000000
0.283691 0.341827 0.000000
0.314392 0.342773 0.000000
0.346893 0.343781 0.000000
0.381165 0.344788 0.000000
0.416840 0.345795 0.000000
0.453613 0.346832 0.000000
0.491211 0.347870 0.000000
0.529388 0.348938 0.000000
0.567993 0.349945 0.000000
0.606873 0.351044 0.000000
0.646027 0.352051 0.000000
0.685303 0.353180 0.000000
0.724762 0.354279 0.000000
0.764221 0.355347 0.000000
0.803711 0.356415 0.000000
0.843170 0.357605 0.000000
0.882599 0.358673 0.000000
0.921875 0.359802 0.000000
0.961029 0.360931 0.000000
1.000000 0.362030 0.000000
0.073456 0.368805 0.000000
0.083557 0.369598 0.000000
0.094330 0.370392 0.000000
0.105957 0.371185 0.000000
0.118622 0.372040 0.000000
0.132629 0.372925 0.000000
0.148193 0.373779 0.000000
0.165619 0.374725 0.000000
0.185089 0.375610 0.000000
0.206848 0.376556 0.000000
0.230957 0.377472 0.000000
0.257385 0.378418 0.000000
0.286133 0.379395 0.000000
0.316864 0.380402 0.000000
0.349426 0.381378 0.000000
0.383667 0.382385 0.000000
0.419312 0.383423 0.000000
0.455963 0.384430 0.000000
0.493530 0.385468 0.000000
0.531555 0.386536 0.000000
0.570007 0.387512 0.000000
0.608765 0.388611 0.000000
0.647675 0.389679 0.000000
0.686859 0.390778 0.000000
0.726074 0.391846 0.000000
0.765381 0.392914 0.000000
0.804688 0.394043 0.000000
0.843964 0.395081 0.000000
0.883148 0.396210 0.000000
0.922241 0.397247 0.000000
0.961212 0.398438 0.000000
1.000000 0.399506 0.000000
0.074585 0.407837 0.000000
0.084747 0.408630 0.000000
0.095581 0.409454 0.000000
0.107239 0.410278 0.000000
0.120026 0.411163 0.000000
0.134155 0.412048 0.000000
0.149872 0.412903 0.000000
0.167450 0.413818 0.000000
0.187042 0.414703 0.000000
0.208984 0.415649 0.000000
0.233246 0.416565 0.000000
0.259796 0.417542 0.000000
0.288574 0.418518 0.000000
0.319397 0.419495 0.000000
0.351990 0.420441 0.000000
0.386200 0.421478 0.000000
0.421783 0.422455 0.000000
0.458374 0.423462 0.000000
0.495789 0.424530 0.000000
0.533661 0.425537 0.000000
0.571960 0.426605 0.000000
0.610596 0.427612 0.000000
0.649384 0.428619 0.000000
0.688354 0.429688 0.000000
0.727417 0.430786 0.000000
0.766510 0.431793 0.000000
0.805634 0.432892 0.000000
0.844727 0.433929 0.000000
0.883759 0.434967 0.000000
0.922638 0.436066 0.000000
0.961395 0.437103 0.000000
1.000000 0.438171 0.000000
0.075745 0.448242 0.000000
0.085968 0.449066 0.000000
0.096863 0.449890 0.000000
0.108612 0.450714 0.000000
0.121521 0.451538 0.000000
0.135681 0.452454 0.000000
0.151581 0.453339 0.000000
0.169342 0.454224 0.000000
0.189117 0.455078 0.000000
0.211151 0.456024 0.000000
0.235565 0.456909 0.000000
0.262268 0.457855 0.000000
0.291138 0.458801 0.000000
0.321960 0.459778 0.000000
0.354614 0.460724 0.000000
0.388763 0.461670 0.000000
0.424286 0.462677 0.000000
0.460785 0.463623 0.000000
0.498138 0.464630 0.000000
0.535797 0.465607 0.000000
0.574036 0.466614 0.000000
0.612457 0.467621 0.000000
0.651062 0.468628 0.000000
0.689850 0.469666 0.000000
0.728729 0.470703 0.000000
0.767670 0.471680 0.000000
0.806610 0.472656 0.000000
0.845520 0.473724 0.000000
0.884338 0.474701 0.000000
0.923065 0.475739 0.000000
0.961609 0.476685 0.000000
1.000000 0.477722 0.000000
0.076935 0.489777 0.000000
0.087219 0.490509 0.000000
0.098175 0.491364 0.000000
0.110046 0.492188 0.000000
0.123016 0.492950 0.000000
0.137360 0.493835 0.000000
0.153381 0.494629 0.000000
0.171265 0.495575 0.000000
0.191223 0.496368 0.000000
0.213409 0.497314 0.000000
0.237946 0.498169 0.000000
0.264771 0.499084 0.000000
0.293671 0.500000 0.000000
0.324615 0.500916 0.000000
0.357239 0.501831 0.000000
0.391327 0.502716 0.000000
0.426788 0.503662 0.000000
0.463257 0.504578 0.000000
0.500397 0.505524 0.000000
0.538025 0.506470 0.000000
0.576050 0.507446 0.000000
0.614288 0.508392 0.000000
0.652771 0.509308 0.000000
0.691345 0.510223 0.000000
0.730072 0.511230 0.000000
0.768829 0.512146 0.000000
0.807587 0.513123 0.000000
0.846252 0.514069 0.000000
0.884888 0.514984 0.000000
0.923370 0.515930 0.000000
0.961761 0.516876 0.000000
1.000000 0.517822 0.000000
0.078186 0.531860 0.000000
0.088501 0.532623 0.000000
0.099518 0.533386 0.000000
0.111511 0.534210 0.000000
0.124573 0.535004 0.000000
0.139069 0.535767 0.000000
0.155212 0.536621 0.000000
0.173248 0.537415 0.000000
0.193359 0.538269 0.000000
0.215759 0.539062 0.000000
0.240417 0.539917 0.000000
0.267334 0.540771 0.000000
0.296295 0.541626 0.000000
0.327209 0.542480 0.000000
0.359894 0.543365 0.000000
0.393982 0.544220 0.000000
0.429321 0.545074 0.000000
0.465698 0.546021 0.000000
0.502747 0.546844 0.000000
0.540222 0.547760 0.000000
0.578064 0.548615 0.000000
0.616180 0.549530 0.000000
0.654419 0.550446 0.000000
0.692871 0.551270 0.000000
0.731415 0.552185 0.000000
0.769958 0.553009 0.000000
0.808533 0.553955 0.000000
0.847015 0.554810 0.000000
0.885498 0.555634 0.000000
0.923798 0.556549 0.000000
0.961975 0.557373 0.000000
1.000000 0.558289 0.000000
0.079468 0.574463 0.000000
0.089844 0.575195 0.000000
0.100952 0.575928 0.000000
0.112976 0.576660 0.000000
0.126190 0.577423 0.000000
0.140778 0.578156 0.000000
0.157104 0.578888 0.000000
0.175293 0.579712 0.000000
0.195557 0.580444 0.000000
0.218079 0.581238 0.000000
0.242889 0.582031 0.000000
0.269897 0.582825 0.000000
0.298981 0.583618 0.000000
0.329865 0.584442 0.000000
0.362518 0.585297 0.000000
0.396637 0.586060 0.000000
0.431946 0.586884 0.000000
0.468109 0.587708 0.000000
0.505035 0.588501 0.000000
0.542358 0.589325 0.000000
0.580078 0.590149 0.000000
0.618011 0.590973 0.000000
0.656158 0.591736 0.000000
0.694397 0.592529 0.000000
0.732697 0.593384 0.000000
0.771118 0.594177 0.000000
0.809448 0.594971 0.000000
0.847748 0.595795 0.000000
0.885986 0.596619 0.000000
0.924164 0.597382 0.000000
0.962189 0.598145 0.000000
1.000000 0.598938 0.000000
0.080750 0.617371 0.000000
0.091187 0.618073 0.000000
0.102386 0.618774 0.000000
0.114502 0.619415 0.000000
0.127838 0.620117 0.000000
0.142578 0.620819 0.000000
0.159058 0.621490 0.000000
0.177429 0.622253 0.000000
0.197784 0.622925 0.000000
0.220459 0.623688 0.000000
0.245392 0.624420 0.000000
0.272491 0.625092 0.000000
0.301636 0.625824 0.000000
0.332581 0.626587 0.000000
0.365204 0.627289 0.000000
0.399261 0.628082 0.000000
0.434479 0.628784 0.000000
0.470612 0.629608 0.000000
0.507385 0.630341 0.000000
0.544556 0.631042 0.000000
0.582092 0.631775 0.000000
0.619904 0.632538 0.000000
0.657806 0.633270 0.000000
0.695892 0.634003 0.000000
0.734009 0.634705 0.000000
0.772186 0.635468 0.000000
0.810394 0.636169 0.000000
0.848480 0.636902 0.000000
0.886597 0.637634 0.000000
0.924530 0.638367 0.000000
0.962341 0.639038 0.000000
1.000000 0.639709 0.000000
0.082092 0.660553 0.000000
0.092590 0.661163 0.000000
0.103851 0.661743 0.000000
0.116089 0.662415 0.000000
0.129517 0.663025 0.000000
0.144379 0.663727 0.000000
0.161011 0.664307 0.000000
0.179535 0.664917 0.000000
0.200073 0.665619 0.000000
0.222900 0.666260 0.000000
0.247955 0.666870 0.000000
0.275116 0.667572 0.000000
0.304321 0.668274 0.000000
0.335327 0.668854 0.000000
0.367950 0.669586 0.000000
0.401886 0.670197 0.000000
0.437073 0.670868 0.000000
0.473053 0.671570 0.000000
0.509705 0.672211 0.000000
0.546722 0.672913 0.000000
0.584045 0.673584 0.000000
0.621674 0.674255 0.000000
0.659454 0.674896 0.000000
0.697357 0.675507 0.000000
0.735321 0.676178 0.000000
0.773315 0.676819 0.000000
0.811310 0.677460 0.000000
0.849274 0.678101 0.000000
0.887146 0.678741 0.000000
0.924896 0.679382 0.000000
0.962524 0.679962 0.000000
1.000000 0.680603 0.000000
0.083496 0.703796 0.000000
0.094025 0.704315 0.000000
0.105347 0.704895 0.000000
0.117676 0.705475 0.000000
0.131256 0.706024 0.000000
0.146271 0.706604 0.000000
0.163025 0.707214 0.000000
0.181702 0.707764 0.000000
0.202423 0.708344 0.000000
0.225372 0.708893 0.000000
0.250519 0.709473 0.000000
0.277802 0.710114 0.000000
0.307068 0.710663 0.000000
0.338043 0.711243 0.000000
0.370605 0.711823 0.000000
0.404541 0.712433 0.000000
0.439636 0.713013 0.000000
0.475494 0.713562 0.000000
0.511993 0.714203 0.000000
0.548859 0.714752 0.000000
0.586090 0.715332 0.000000
0.623474 0.715912 0.000000
0.661072 0.716522 0.000000
0.698792 0.717072 0.000000
0.736603 0.717621 0.000000
0.774445 0.718231 0.000000
0.812225 0.718719 0.000000
0.849945 0.719299 0.000000
0.887665 0.719849 0.000000
0.925232 0.720398 0.000000
0.962738 0.720947 0.000000
1.000000 0.721466 0.000000
0.084869 0.747040 0.000000
0.095490 0.747589 0.000000
0.106903 0.748047 0.000000
0.119324 0.748535 0.000000
0.132996 0.749023 0.000000
0.148163 0.749573 0.000000
0.165070 0.750031 0.000000
0.183868 0.750519 0.000000
0.204773 0.751038 0.000000
0.227875 0.751526 0.000000
0.253143 0.752014 0.000000
0.280518 0.752563 0.000000
0.309784 0.753052 0.000000
0.340759 0.753571 0.000000
0.373322 0.754059 0.000000
0.407227 0.754578 0.000000
0.442169 0.755066 0.000000
0.477966 0.755554 0.000000
0.514221 0.756073 0.000000
0.550995 0.756561 0.000000
0.588074 0.757050 0.000000
0.625244 0.757538 0.000000
0.662720 0.758087 0.000000
0.700256 0.758545 0.000000
0.737793 0.759064 0.000000
0.775482 0.759491 0.000000
0.813141 0.759949 0.000000
0.850647 0.760406 0.000000
0.888184 0.760925 0.000000
0.925568 0.761353 0.000000
0.962891 0.761841 0.000000
1.000000 0.762299 0.000000
0.086304 0.790375 0.000000
0.096954 0.790771 0.000000
0.108459 0.791107 0.000000
0.121002 0.791565 0.000000
0.134796 0.791962 0.000000
0.150085 0.792419 0.000000
0.167175 0.792847 0.000000
0.186066 0.793243 0.000000
0.207123 0.793701 0.000000
0.230377 0.794128 0.000000
0.255768 0.794525 0.000000
0.283173 0.794922 0.000000
0.312500 0.795380 0.000000
0.343475 0.795776 0.000000
0.376038 0.796265 0.000000
0.409851 0.796661 0.000000
0.444702 0.796997 0.000000
0.480347 0.797455 0.000000
0.516541 0.797913 0.000000
0.553101 0.798248 0.000000
0.589966 0.798737 0.000000
0.627014 0.799133 0.000000
0.664276 0.799500 0.000000
0.701660 0.799957 0.000000
0.739075 0.800354 0.000000
0.776520 0.800720 0.000000
0.813965 0.801056 0.000000
0.851379 0.801483 0.000000
0.888733 0.801880 0.000000
0.925934 0.802277 0.000000
0.963013 0.802643 0.000000
1.000000 0.802948 0.000000
0.087738 0.833496 0.000000
0.098511 0.833832 0.000000
0.110046 0.834167 0.000000
0.122681 0.834503 0.000000
0.136597 0.834808 0.000000
0.152039 0.835175 0.000000
0.169250 0.835510 0.000000
0.188324 0.835846 0.000000
0.209564 0.836212 0.000000
0.232910 0.836487 0.000000
0.258362 0.836853 0.000000
0.285919 0.837158 0.000000
0.315247 0.837524 0.000000
0.346222 0.837860 0.000000
0.378723 0.838196 0.000000
0.412415 0.838501 0.000000
