scenes/luxball/domingo_145.cube
#Created by: Adobe Photoshop Export Color Lookup Plugin
#Copyright: (C) Copyright 2017 RocketStock
TITLE "Untitled"
#LUT size
LUT_3D_SIZE 8
#data domain
#LUT data points
DOMAIN_MIN 0.000000 0.000000 0.000000
DOMAIN_MAX 0.903226 0.903226 0.903226
0.039215 0.027924 0.000000
0.081635 0.029541 0.000000
0.138214 0.031616 0.000000
0.229584 0.034119 0.000000
0.366211 0.036957 0.000000
0.531342 0.040161 0.000000
0.703583 0.043671 0.000000
0.874573 0.047333 0.000000
0.045593 0.071808 0.000000
0.089844 0.074310 0.000000
0.150696 0.077271 0.000000
0.248047 0.080566 0.000000
0.386841 0.084351 0.000000
0.548248 0.088409 0.000000
0.711151 0.090118 0.000000
0.876465 0.092010 0.000000
0.054840 0.131378 0.000000
0.100861 0.135620 0.000000
0.166229 0.140442 0.000000
0.268585 0.145782 0.000000
0.401062 0.147980 0.000000
0.554779 0.150452 0.000000
0.715759 0.153168 0.000000
0.878571 0.156128 0.000000
0.065613 0.228912 0.000000
0.113403 0.235840 0.000000
0.177826 0.238800 0.000000
0.276764 0.241943 0.000000
0.409790 0.245392 0.000000
0.562134 0.249084 0.000000
0.720825 0.253052 0.000000
0.880829 0.257141 0.000000
0.073456 0.368805 0.000000
0.118622 0.372040 0.000000
0.185089 0.375610 0.000000
0.286133 0.379395 0.000000
0.419312 0.383423 0.000000
0.570007 0.387512 0.000000
0.726074 0.391846 0.000000
0.883148 0.396210 0.000000
0.078186 0.531860 0.000000
0.124573 0.535004 0.000000
0.193359 0.538269 0.000000
0.296295 0.541626 0.000000
0.429321 0.545074 0.000000
0.578064 0.548615 0.000000
0.731415 0.552185 0.000000
0.885498 0.555634 0.000000
0.083496 0.703796 0.000000
0.131256 0.706024 0.000000
0.202423 0.708344 0.000000
0.307068 0.710663 0.000000
0.439636 0.713013 0.000000
0.586090 0.715332 0.000000
0.736603 0.717621 0.000000
0.887665 0.719849 0.000000
0.089203 0.876465 0.000000
0.138428 0.877472 0.000000
0.211975 0.878540 0.000000
0.317932 0.879486 0.000000
0.449646 0.880554 0.000000
0.593781 0.881531 0.000000
0.741455 0.882385 0.000000
0.889648 0.883301 0.000000
0.040131 0.028503 0.014282
0.082947 0.030243 0.015167
0.140228 0.032471 0.016235
0.232758 0.035095 0.017578
0.369904 0.038086 0.019073
0.534607 0.041412 0.020935
0.705719 0.045044 0.023071
0.874939 0.047913 0.024841
0.047119 0.072662 0.016205
0.091766 0.075348 0.017487
0.153412 0.078430 0.019043
0.251862 0.081909 0.020844
0.390747 0.085815 0.022949
0.549377 0.089020 0.024841
0.711975 0.090759 0.025818
0.876862 0.092743 0.026978
0.056793 0.132874 0.018982
0.103119 0.137299 0.020782
0.169312 0.142365 0.022919
0.270020 0.146545 0.024750
0.402618 0.148865 0.025787
0.556091 0.151459 0.026947
0.716705 0.154205 0.028229
0.878998 0.157288 0.029633
0.067749 0.231384 0.022797
0.114380 0.236938 0.024750
0.179108 0.239929 0.025757
0.278412 0.243195 0.026917
0.411438 0.246704 0.028198
0.563568 0.250488 0.029602
0.721802 0.254517 0.031067
0.881256 0.258698 0.032593
0.074310 0.369965 0.025726
0.119690 0.373322 0.026886
0.186584 0.377014 0.028137
0.287933 0.380829 0.029510
0.421143 0.384888 0.031006
0.571442 0.389130 0.032532
0.727081 0.393433 0.034119
0.883606 0.397797 0.035706
0.079132 0.532990 0.028107
0.125763 0.536194 0.029480
0.194977 0.539459 0.030945
0.298279 0.542877 0.032501
0.431274 0.546417 0.034027
0.579559 0.549927 0.035645
0.732391 0.553467 0.037292
0.885864 0.556915 0.038940
0.084503 0.704590 0.030884
0.132538 0.706879 0.032440
0.204163 0.709167 0.033997
0.309052 0.711487 0.035614
0.441528 0.713867 0.037231
0.587555 0.716187 0.038910
0.737549 0.718445 0.040527
0.888031 0.720642 0.042145
0.090302 0.876892 0.033936
0.139832 0.877899 0.035583
0.213745 0.878876 0.037201
0.319946 0.879913 0.038849
0.451508 0.880890 0.040466
0.595184 0.881897 0.042053
0.742310 0.882782 0.043610
0.890015 0.883636 0.045105
0.041168 0.029083 0.073547
0.084320 0.031036 0.074677
0.142395 0.033386 0.076172
0.236053 0.036163 0.077850
0.373718 0.039276 0.079926
0.537750 0.042725 0.082336
0.707886 0.046509 0.085205
0.875214 0.048492 0.086792
0.048767 0.073578 0.076080
0.093719 0.076416 0.077789
0.156189 0.079651 0.079865
0.255676 0.083344 0.082275
0.394653 0.087372 0.085114
0.550568 0.089630 0.086761
0.712799 0.091492 0.088165
0.877258 0.093536 0.089691
0.058777 0.134460 0.079803
0.105408 0.139099 0.082153
0.172424 0.144318 0.084991
0.271484 0.147369 0.086731
0.404205 0.149780 0.088135
0.557434 0.152435 0.089661
0.717621 0.155304 0.091309
0.879425 0.158417 0.093170
0.069794 0.233978 0.084900
0.115295 0.238007 0.086670
0.180420 0.241058 0.088043
0.280121 0.244415 0.089630
0.413239 0.248108 0.091248
0.565002 0.251953 0.093079
0.722809 0.256042 0.095001
0.881714 0.260315 0.097015
0.075165 0.371155 0.088013
0.120758 0.374634 0.089539
0.188049 0.378387 0.091217
0.289856 0.382324 0.093048
0.423004 0.386475 0.094971
0.572968 0.390686 0.096924
0.728088 0.395020 0.098999
0.884003 0.399445 0.101105
0.080109 0.534180 0.091156
0.126984 0.537354 0.092987
0.196655 0.540741 0.094879
0.300293 0.544159 0.096893
0.433197 0.547699 0.098969
0.581055 0.551208 0.101044
0.733368 0.554810 0.103210
0.886292 0.558197 0.105316
0.085571 0.705444 0.094818
0.133850 0.707703 0.096802
0.205902 0.710052 0.098877
0.311127 0.712372 0.100983
0.443420 0.714722 0.103088
0.588989 0.716980 0.105225
0.738495 0.719238 0.107330
0.888458 0.721436 0.109406
0.091431 0.877197 0.098785
0.141235 0.878265 0.100922
0.215576 0.879242 0.103027
0.321960 0.880249 0.105164
0.453339 0.881226 0.107269
0.596558 0.882202 0.109344
0.743164 0.883057 0.111298
0.890411 0.883942 0.113220
0.042328 0.029724 0.167084
0.085815 0.031830 0.168793
0.144714 0.034363 0.170868
0.239471 0.037262 0.173340
0.377655 0.040527 0.176300
0.540955 0.044067 0.179718
0.709290 0.047485 0.183289
0.875580 0.049072 0.184998
0.050476 0.074554 0.170807
0.095764 0.077576 0.173279
0.159119 0.080902 0.176147
0.259491 0.084747 0.179626
0.397552 0.088562 0.183197
0.551758 0.090302 0.184967
0.713684 0.092224 0.186859
0.877655 0.094330 0.188934
0.060760 0.136078 0.176086
0.107819 0.140961 0.179504
0.174957 0.145966 0.183197
0.272980 0.148224 0.184875
0.405792 0.150696 0.186768
0.558838 0.153473 0.188873
0.718567 0.156433 0.191162
0.879883 0.159607 0.193604
0.071625 0.236237 0.183105
0.116241 0.239075 0.184814
0.181763 0.242310 0.186737
0.281891 0.245789 0.188812
0.414978 0.249481 0.191071
0.566437 0.253479 0.193512
0.723755 0.257599 0.196014
0.882172 0.261902 0.198700
0.076019 0.372437 0.186676
0.121826 0.375977 0.188721
0.189606 0.379791 0.191010
0.291718 0.383759 0.193420
0.424896 0.388000 0.195953
0.574493 0.392303 0.198578
0.729095 0.396637 0.201294
0.884460 0.401062 0.204010
0.081085 0.535339 0.190948
0.128235 0.538605 0.193298
0.198334 0.541962 0.195923
0.302246 0.545441 0.198517
0.435089 0.548920 0.201233
0.582520 0.552490 0.203949
0.734375 0.556000 0.206665
0.886719 0.559479 0.209412
0.086639 0.706268 0.195770
0.135223 0.708527 0.198456
0.207733 0.710876 0.201141
0.313141 0.713226 0.203827
0.445282 0.715515 0.206573
0.590454 0.717896 0.209290
0.739410 0.720032 0.211975
0.888794 0.722229 0.214569
0.092529 0.877563 0.201050
0.142639 0.878632 0.203735
0.217407 0.879669 0.206482
0.323914 0.880615 0.209198
0.455109 0.881561 0.211884
0.597839 0.882538 0.214508
0.744019 0.883362 0.216949
0.890686 0.884216 0.219269
0.043640 0.030487 0.311707
0.087463 0.032715 0.313751
0.147156 0.035370 0.316284
0.243011 0.038422 0.319153
0.381531 0.041748 0.322601
0.544189 0.045410 0.326599
0.710083 0.048065 0.329590
0.875916 0.049683 0.331543
0.052277 0.075623 0.316132
0.097900 0.078735 0.319092
0.162079 0.082306 0.322418
0.263367 0.086243 0.326447
0.399017 0.089172 0.329529
0.553040 0.091003 0.331451
0.714539 0.092987 0.333649
0.878021 0.095154 0.335907
0.062836 0.137817 0.322296
0.110138 0.142883 0.326355
0.176117 0.146759 0.329468
0.274567 0.149109 0.331421
0.407440 0.151703 0.333527
0.560211 0.154510 0.335846
0.719482 0.157562 0.338379
0.880249 0.160797 0.341034
0.072357 0.237244 0.329407
0.117218 0.240234 0.331329
0.183136 0.243530 0.333496
0.283661 0.247101 0.335815
0.416779 0.250946 0.338257
0.567963 0.254974 0.340942
0.724731 0.259125 0.343628
0.882568 0.263489 0.346466
0.076935 0.373688 0.333374
0.122986 0.377319 0.335663
0.191193 0.381226 0.338196
0.293671 0.385345 0.340881
0.426727 0.389526 0.343567
0.576019 0.393890 0.346344
0.730042 0.398285 0.349243
0.884888 0.402679 0.352081
0.082092 0.536560 0.338135
0.129486 0.539795 0.340729
0.200073 0.543213 0.343475
0.304260 0.546753 0.346252
0.437042 0.550293 0.349091
0.584015 0.553802 0.351929
0.735321 0.557281 0.354828
0.887146 0.560699 0.357605
0.087708 0.707062 0.343384
0.136566 0.709442 0.346191
0.209534 0.711761 0.349030
0.315186 0.714111 0.351868
0.447174 0.716431 0.354736
0.591827 0.718689 0.357513
0.740295 0.720825 0.360260
0.889160 0.722961 0.362885
0.093689 0.877960 0.348907
0.144073 0.878998 0.351807
0.219208 0.880005 0.354675
0.325928 0.880981 0.357452
0.456909 0.881958 0.360168
0.599152 0.882874 0.362762
0.744812 0.883698 0.365265
0.891052 0.884491 0.367554
0.045044 0.031219 0.497131
0.089203 0.033630 0.499023
0.149750 0.036469 0.501282
0.246704 0.039581 0.503906
0.385437 0.043091 0.507019
0.547272 0.046875 0.510620
0.710846 0.048645 0.512360
0.876343 0.050323 0.514008
0.054138 0.076721 0.501190
0.100067 0.079987 0.503815
0.165131 0.083710 0.506958
0.267181 0.087799 0.510437
0.400513 0.089813 0.512299
0.554321 0.091675 0.513947
0.715454 0.093750 0.515869
0.878448 0.095978 0.517883
0.064880 0.139587 0.506805
0.112549 0.144867 0.510376
0.177338 0.147614 0.512238
0.276123 0.150024 0.513824
0.409119 0.152710 0.515747
0.561646 0.155640 0.517822
0.720459 0.158752 0.519928
0.880707 0.162048 0.522156
0.073181 0.238281 0.512207
0.118256 0.241425 0.513794
0.184570 0.244781 0.515686
0.285431 0.248444 0.517731
0.418610 0.252380 0.519836
0.569458 0.256439 0.522125
0.725708 0.260742 0.524384
0.882996 0.265106 0.526733
0.077850 0.375000 0.515656
0.124146 0.378754 0.517670
0.192780 0.382751 0.519806
0.295593 0.386841 0.522034
0.428680 0.391113 0.524323
0.577484 0.395508 0.526703
0.731049 0.399902 0.529022
0.885284 0.404266 0.531433
0.083099 0.537689 0.519684
0.130737 0.541046 0.521942
0.201752 0.544525 0.524261
0.306335 0.548065 0.526611
0.438934 0.551575 0.528992
0.585510 0.555115 0.531372
0.736206 0.558563 0.533691
0.887512 0.561951 0.535950
0.088837 0.707916 0.524200
0.137970 0.710266 0.526550
0.211304 0.712616 0.528900
0.317169 0.714935 0.531281
0.449005 0.717224 0.533630
0.593262 0.719452 0.535919
0.741119 0.721649 0.538116
0.889557 0.723694 0.540253
0.094849 0.878357 0.528870
0.145508 0.879364 0.531189
0.221039 0.880371 0.533508
0.327850 0.881317 0.535797
0.458618 0.882294 0.538055
0.600372 0.883179 0.540161
0.745575 0.884003 0.542084
0.891388 0.884796 0.543915
0.046570 0.032074 0.700867
0.091034 0.034637 0.702179
0.152405 0.037567 0.703796
0.250427 0.040833 0.705719
0.389313 0.044434 0.707886
0.548950 0.047638 0.709991
0.711700 0.049225 0.710968
0.876709 0.051025 0.712219
0.056061 0.077881 0.703766
0.102295 0.081329 0.705658
0.168182 0.085175 0.707825
0.269470 0.088715 0.709900
0.402039 0.090485 0.710968
0.555603 0.092438 0.712189
0.716339 0.094543 0.713501
0.878845 0.096832 0.714844
0.066956 0.141449 0.707733
0.114075 0.146210 0.709900
0.178650 0.148438 0.710938
0.277802 0.150940 0.712189
0.410858 0.153748 0.713470
0.563049 0.156738 0.714813
0.721466 0.159943 0.716278
0.881104 0.163300 0.717712
0.074005 0.239410 0.710907
0.119293 0.242584 0.712097
0.186005 0.246094 0.713379
0.287292 0.249878 0.714752
0.420471 0.253845 0.716248
0.570923 0.258026 0.717682
0.726776 0.262360 0.719269
0.883453 0.266724 0.720856
0.078766 0.376373 0.713318
0.125336 0.380188 0.714752
0.194397 0.384216 0.716156
0.297546 0.388397 0.717621
0.430603 0.392700 0.719238
0.579041 0.397095 0.720795
0.732025 0.401489 0.722382
0.885742 0.405853 0.723999
0.084137 0.538910 0.716125
0.132050 0.542358 0.717590
0.203491 0.545776 0.719177
0.308350 0.549347 0.720764
0.440857 0.552856 0.722321
0.587036 0.556366 0.723938
0.737183 0.559814 0.725464
0.887909 0.563141 0.726959
0.089935 0.708801 0.719116
0.139313 0.711121 0.720703
0.213104 0.713440 0.722290
0.319214 0.715759 0.723877
0.450867 0.718079 0.725433
0.594666 0.720306 0.726868
0.742035 0.722412 0.728363
0.889862 0.724396 0.729767
0.095978 0.878693 0.722260
0.146912 0.879730 0.723816
0.222839 0.880737 0.725372
0.329803 0.881683 0.726837
0.460327 0.882599 0.728302
0.601593 0.883453 0.729675
0.746338 0.884338 0.730957
0.891632 0.885040 0.732147
0.048157 0.032959 0.912018
0.092987 0.035645 0.912598
0.155182 0.038727 0.913361
0.254303 0.042145 0.914246
0.393188 0.045837 0.915283
0.550110 0.048218 0.915894
0.712463 0.049896 0.916443
0.877045 0.051727 0.916962
0.058044 0.079132 0.913330
0.104584 0.082642 0.914185
0.171295 0.086639 0.915253
0.270935 0.089355 0.915894
0.403595 0.091187 0.916443
0.556976 0.093201 0.916931
0.717285 0.095398 0.917511
0.879272 0.097748 0.918152
0.069061 0.143402 0.915253
0.114960 0.146973 0.915894
0.179932 0.149353 0.916382
0.279480 0.151978 0.916931
0.412598 0.154816 0.917480
0.564453 0.157898 0.918091
0.722351 0.161163 0.918732
0.881561 0.164520 0.919434
0.074829 0.240540 0.916382
0.120361 0.243866 0.916931
0.187531 0.247437 0.917480
0.289124 0.251343 0.918091
0.422363 0.255402 0.918732
0.572418 0.259583 0.919434
0.727753 0.263916 0.920135
0.883881 0.268311 0.920807
0.079712 0.377716 0.917480
0.126526 0.381622 0.918091
0.196014 0.385681 0.918701
0.299530 0.389984 0.919403
0.432495 0.394348 0.920105
0.580475 0.398712 0.920807
0.733032 0.403076 0.921417
0.886139 0.407471 0.922180
0.085175 0.540131 0.918701
0.133392 0.543610 0.919403
0.205261 0.547058 0.920105
0.310364 0.550629 0.920715
0.442719 0.554169 0.921417
0.588470 0.557678 0.922150
0.738129 0.561035 0.922791
0.888336 0.564392 0.923462
0.091034 0.709625 0.920013
0.140717 0.711975 0.920715
0.214935 0.714355 0.921387
0.321198 0.716675 0.922150
0.452698 0.718903 0.922760
0.596008 0.721069 0.923431
0.742859 0.723175 0.924011
0.890228 0.725128 0.924652
0.097107 0.879059 0.921387
0.148346 0.880066 0.922150
0.224670 0.881042 0.922760
0.331757 0.882050 0.923431
0.461975 0.882935 0.924011
0.602905 0.883820 0.924622
0.747040 0.884552 0.925140
0.891937 0.885254 0.925659
