scenes/luxball/domingo_145.cube
#Created by: Adobe Photoshop Export Color Lookup Plugin
#Copyright: (C) Copyright 2017 RocketStock
TITLE "Untitled"
#LUT size
LUT_3D_SIZE 5
#data domain
#LUT data points
DOMAIN_MIN 0.000000 0.000000 0.000000
DOMAIN_MAX 0.903226 0.903226 0.903226
0.039215 0.027924 0.000000
0.121704 0.031067 0.000000
0.292877 0.035461 0.000000
0.574280 0.041016 0.000000
0.874573 0.047333 0.000000
0.052338 0.113892 0.000000
0.143219 0.120667 0.000000
0.329041 0.128998 0.000000
0.593018 0.132751 0.000000
0.878021 0.137238 0.000000
0.071228 0.296173 0.000000
0.162170 0.301788 0.000000
0.344482 0.308136 0.000000
0.605042 0.315186 0.000000
0.881958 0.322815 0.000000
0.079468 0.574463 0.000000
0.175293 0.579712 0.000000
0.362518 0.585297 0.000000
0.618011 0.590973 0.000000
0.885986 0.596619 0.000000
0.089203 0.876465 0.000000
0.190613 0.878265 0.000000
0.381378 0.880035 0.000000
0.630524 0.881775 0.000000
0.889648 0.883301 0.000000
0.040894 0.028931 0.056458
0.124908 0.032562 0.058502
0.299225 0.037384 0.061310
0.579407 0.043274 0.065155
0.875153 0.048370 0.068787
0.055603 0.116211 0.061188
0.148163 0.123566 0.065033
0.331665 0.130280 0.068726
0.595184 0.134308 0.071014
0.878784 0.139038 0.073792
0.072693 0.298248 0.068665
0.164368 0.304077 0.070953
0.347687 0.310638 0.073730
0.607452 0.317963 0.076752
0.882751 0.325684 0.080078
0.081177 0.576355 0.073578
0.178009 0.581696 0.076630
0.366028 0.587341 0.079956
0.620453 0.593048 0.083374
0.886749 0.598633 0.086823
0.091156 0.877136 0.079865
0.193604 0.878906 0.083282
0.384796 0.880707 0.086731
0.632690 0.882324 0.090118
0.890320 0.883881 0.093262
0.042969 0.030060 0.233093
0.128540 0.034210 0.236725
0.305847 0.039398 0.241699
0.584564 0.045715 0.248322
0.875793 0.049377 0.252533
0.059052 0.118713 0.241547
0.153229 0.126648 0.248077
0.334381 0.131653 0.252411
0.597321 0.135986 0.256226
0.879517 0.140900 0.260559
0.074158 0.300232 0.252319
0.166718 0.306335 0.256073
0.351013 0.313263 0.260468
0.609863 0.320740 0.265106
0.883545 0.328583 0.270081
0.082977 0.578278 0.260223
0.180847 0.583740 0.264954
0.369598 0.589417 0.269958
0.622772 0.595123 0.274994
0.887482 0.600616 0.279907
0.093109 0.877777 0.269745
0.196625 0.879547 0.274780
0.388184 0.881256 0.279755
0.634796 0.882904 0.284454
0.890869 0.884399 0.288696
0.045410 0.031433 0.546997
0.132568 0.035980 0.550293
0.312683 0.041595 0.554779
0.588379 0.047607 0.559967
0.876404 0.050507 0.562622
0.062653 0.121429 0.554657
0.157318 0.129333 0.559906
0.337280 0.133148 0.562531
0.599579 0.137665 0.565643
0.880219 0.142853 0.569214
0.075653 0.302399 0.562439
0.169159 0.308807 0.565552
0.354370 0.315918 0.569000
0.612274 0.323608 0.572784
0.884308 0.331482 0.576599
0.084747 0.580200 0.568939
0.183685 0.585815 0.572632
0.373108 0.591522 0.576508
0.625153 0.597168 0.580231
0.888123 0.602509 0.583954
0.095123 0.878418 0.576294
0.199646 0.880219 0.580170
0.391510 0.881958 0.583862
0.636780 0.883423 0.587219
0.891418 0.884857 0.590210
0.048157 0.032959 0.912018
0.136871 0.037903 0.913177
0.319672 0.043945 0.914703
0.590271 0.048615 0.916077
0.877045 0.051727 0.916962
0.066254 0.124420 0.914703
0.159271 0.130646 0.916016
0.340271 0.134735 0.916931
0.601868 0.139526 0.917938
0.880951 0.144867 0.919128
0.077209 0.304657 0.916901
0.171722 0.311340 0.917938
0.357788 0.318726 0.919067
0.614685 0.326508 0.920288
0.885040 0.334412 0.921448
0.086609 0.582214 0.919037
0.186615 0.587921 0.920258
0.376617 0.593597 0.921417
0.627380 0.599121 0.922577
0.888794 0.604431 0.923706
0.097107 0.879059 0.921387
0.202637 0.880859 0.922546
0.394714 0.882538 0.923706
0.638702 0.884003 0.924774
0.891937 0.885254 0.925659
